X: 34242
T: Reel With The Birl, The
R: reel
M: 4/4
K: Edorian
~E2BE dEBE|~E2BE AGFD|~E2BE dEBd|efdB AFDF|
~E2BE dEBE|~E2BE AGFA|GBEF GABd|eddB A3d||
BABd e3g|fddc d2ef|g2gf gfeg|fa~a2 afde|
fb~b2 faaf|gefd edBA|GBEF GABd|eddB AGFD||

